X: 1
T: Dark Girl Dressed in Blue (?)
R: Polka
M: 2/4
L: 1/8
K: Dmaj
A>GFG | A/2B/2=c/2A/2 BG|A>GFG | A/2dc/2 d2|
A>GFG | A/2B/2=c/2A/2 BG|Ad c/2d/2e/2d/2|1d2 d2:|2 d3 e||
ff gf/2e/2|dB Ad/2e/2|ffgf| d2 d>e|
ff gf/2e/2|dBAB|=c2 BA|1 G2 Ge |2 G2 G2:|] 

